src/assets/icons/wallet.svg

<svg width="34" height="34" viewBox="0 0 34 34" fill="none" xmlns="http://www.w3.org/2000/svg">
<path d="M26.76 9.97297L24.78 5.05405C24.69 4.79054 24.51 4.61486 24.24 4.52703C23.97 4.43919 23.79 4.43919 23.52 4.52703L17.67 7.25C17.67 7.16216 17.67 7.07432 17.58 6.98649L15.96 4.35135C15.87 4.26351 15.6 4.08784 15.42 4C15.15 4 14.88 4 14.7 4.17568L6.15 9.7973L5.88 10.0608C4.17 10.6757 3 12.2568 3 14.1892V25.6081C3 28.0676 4.98 30 7.5 30H25.5C28.02 30 30 28.0676 30 25.6081V14.1892C30 12.1689 28.65 10.5 26.76 9.97297V9.97297ZM24.69 9.7973H16.59L23.43 6.63514L24.69 9.7973ZM14.88 6.10811L15.96 7.9527L16.05 8.04054L12.45 9.70946H9.48L14.88 6.10811V6.10811ZM25.5 28.2432H7.5C5.97 28.2432 4.8 27.0135 4.8 25.6081V14.1892C4.8 12.6959 6.06 11.5541 7.5 11.5541H25.5C27.03 11.5541 28.2 12.7838 28.2 14.1892V17.7027H22.8C20.82 17.7027 19.2 19.2838 19.2 21.2162C19.2 23.1486 20.82 24.7297 22.8 24.7297H28.2V25.6081C28.2 27.0135 26.94 28.2432 25.5 28.2432ZM28.2 22.973H22.8C21.81 22.973 21 22.1824 21 21.2162C21 20.25 21.81 19.4595 22.8 19.4595H28.2V22.973Z" fill="white"/>
</svg>

<svg width="34" height="34" fill="none" xmlns="http://www.w3.org/2000/svg"><path d="M26.76 9.973l-1.98-4.919a.802.802 0 00-.54-.527 1.017 1.017 0 00-.72 0L17.67 7.25c0-.088 0-.176-.09-.264l-1.62-2.635A2.806 2.806 0 0015.42 4c-.27 0-.54 0-.72.176L6.15 9.797l-.27.264C4.17 10.676 3 12.257 3 14.189v11.42C3 28.067 4.98 30 7.5 30h18c2.52 0 4.5-1.932 4.5-4.392V14.19c0-2.02-1.35-3.689-3.24-4.216zm-2.07-.176h-8.1l6.84-3.162 1.26 3.162zm-9.81-3.689l1.08 1.845.09.088-3.6 1.668H9.48l5.4-3.6zM25.5 28.243h-18c-1.53 0-2.7-1.23-2.7-2.635V14.19c0-1.493 1.26-2.635 2.7-2.635h18c1.53 0 2.7 1.23 2.7 2.635v3.514h-5.4c-1.98 0-3.6 1.58-3.6 3.513 0 1.933 1.62 3.514 3.6 3.514h5.4v.878c0 1.405-1.26 2.635-2.7 2.635zm2.7-5.27h-5.4c-.99 0-1.8-.79-1.8-1.757 0-.966.81-1.757 1.8-1.757h5.4v3.514z" fill="#fff"/></svg>
